Yosa-Max/actions/22x22/tools-media-optical-format.svg

<?xml version="1.0" encoding="UTF-8"?>
<svg viewBox="0 0 22 22" xmlns="http://www.w3.org/2000/svg">
 <defs id="defs3051">
  <style id="current-color-scheme" type="text/css">.ColorScheme-Text {
        color:#4d4d4d;
      }</style>
 </defs>
 <path class="ColorScheme-Text" d="m11 3c-4.432 0-8 3.568-8 8s3.568 8 8 8 8-3.568 8-8-3.568-8-8-8zm0 1c3.878 0 7 3.122 7 7s-3.122 7-7 7-7-3.122-7-7 3.122-7 7-7zm0 5c-1.1079987 0-2 0.8920013-2 2 0 1.107999 0.8920013 2 2 2 1.107999 0 2-0.892001 2-2 0-1.1079987-0.892001-2-2-2zm0 1c0.553999 0 1 0.446001 1 1s-0.446001 1-1 1-1-0.446001-1-1 0.446001-1 1-1z" style="fill:currentColor"/>
</svg>

<svg xmlns="http://www.w3.org/2000/svg" viewBox="0 0 22 22">
  <defs id="defs3051">
    <style type="text/css" id="current-color-scheme">
      .ColorScheme-Text {
        color:#4d4d4d;
      }
      </style>
  </defs>
 <path 
    style="fill:currentColor;fill-opacity:1;stroke:none" 
    d="M 11 3 C 6.568 3 3 6.568 3 11 C 3 15.432 6.568 19 11 19 C 15.432 19 19 15.432 19 11 C 19 6.568 15.432 3 11 3 z M 11 4 C 14.878 4 18 7.122 18 11 C 18 14.878 14.878 18 11 18 C 7.122 18 4 14.878 4 11 C 4 7.122 7.122 4 11 4 z M 11 9 C 9.8920013 9 9 9.8920013 9 11 C 9 12.107999 9.8920013 13 11 13 C 12.107999 13 13 12.107999 13 11 C 13 9.8920013 12.107999 9 11 9 z M 11 10 C 11.553999 10 12 10.446001 12 11 C 12 11.553999 11.553999 12 11 12 C 10.446001 12 10 11.553999 10 11 C 10 10.446001 10.446001 10 11 10 z "
    class="ColorScheme-Text"
    />  
</svg>
